X:005
T:Trindade Adorada
T:(Primeira música)
M:4/4
L:1/4
K:G
V:S
"G" G2 G G/2G/2 | "D" A2 z2 | A2 (A d) | A A A "G6"G | "D/A" F2 "A7"E2 | "D" D2 z
w:Gló- ria se- ja~ao Pai, Ao Fi- ~ lho e~ao San- to~Es- pí- ri- to,
"D7" D/2D/2 | "G" G G "Em" G B | "Am" B A z D | "D7" A3/2 A/2 A c | "C/G" c "G" B z2 |
w:Co- mo e- ra no prin- cí- pio, É ho- je~e pa- ra sem- pre,
"G" G2 B G | "C" E2 "Am7" C2 | "G/D" D2 "D7" F2 | "G" G4 |]
w:E- ter- na- men- te!~A- mém! A- mém!